dist/svgs/core-ui-icons/brand/cib-adobe-lightroom.svg

<svg xmlns="http://www.w3.org/2000/svg" width="32" height="32" viewBox="0 0 32 32">
  <path d="M26.333 0.401h-20.667c-3.136 0-5.667 2.531-5.667 5.667v19.864c0 3.136 2.531 5.667 5.667 5.667h20.667c3.136 0 5.667-2.531 5.667-5.667v-19.864c0-3.136-2.531-5.667-5.667-5.667zM30.651 25.412c0.016 2.676-2.151 4.853-4.823 4.853h-19.656c-2.667 0-4.839-2.172-4.839-4.853v-18.824c0-2.681 2.172-4.853 4.839-4.853h19.64c2.672 0 4.839 2.167 4.839 4.839zM8.864 22.172c-0.156 0-0.197-0.068-0.197-0.199v-14.333c0-0.109 0.041-0.171 0.161-0.171h2.104c0.109 0 0.136 0.036 0.136 0.156v12.348h5.495c0.104 0 0.145 0.043 0.12 0.163l-0.333 1.891c-0.032 0.109-0.095 0.161-0.204 0.161h-7.281zM18.864 13.531c0-0.156 0-0.547-0.061-1.291 0-0.104 0.025-0.136 0.104-0.172 0.812-0.333 2.744-0.923 4.905-0.923 0.109 0 0.161 0.027 0.161 0.136v1.916c0 0.109-0.041 0.136-0.161 0.136-0.839-0.041-2.077 0.068-2.547 0.265v8.417c0 0.104-0.036 0.156-0.161 0.156h-2.088c-0.109 0-0.161-0.036-0.161-0.156v-8.485z"/>
</svg>

<svg xmlns="http://www.w3.org/2000/svg" viewBox="0 0 32 32"><path d="M26.333.401H5.666A5.66 5.66 0 00-.001 6.068v19.864a5.66 5.66 0 005.667 5.667h20.667A5.66 5.66 0 0032 25.932V6.068A5.66 5.66 0 0026.333.401zm4.318 25.011a4.825 4.825 0 01-4.823 4.853H6.172c-2.667 0-4.839-2.172-4.839-4.853V6.588c0-2.681 2.172-4.853 4.839-4.853h19.64a4.84 4.84 0 014.839 4.839zm-21.787-3.24c-.156 0-.197-.068-.197-.199V7.64c0-.109.041-.171.161-.171h2.104c.109 0 .136.036.136.156v12.348h5.495c.104 0 .145.043.12.163l-.333 1.891c-.032.109-.095.161-.204.161H8.865zm10-8.641c0-.156 0-.547-.061-1.291 0-.104.025-.136.104-.172.812-.333 2.744-.923 4.905-.923.109 0 .161.027.161.136v1.916c0 .109-.041.136-.161.136-.839-.041-2.077.068-2.547.265v8.417c0 .104-.036.156-.161.156h-2.088c-.109 0-.161-.036-.161-.156V13.53z"/></svg>
